icons/1_Primary/Critical Start.svg

<svg width="1024" height="1024" viewBox="0 0 1024 1024" fill="none" xmlns="http://www.w3.org/2000/svg">
<g clip-path="url(#clip0_2_1905)">
<path d="M512 1024C794.77 1024 1024 794.77 1024 512C1024 229.23 794.77 0 512 0C229.23 0 0 229.23 0 512C0 794.77 229.23 1024 512 1024Z" fill="#9ABEFF"/>
<path d="M471.14 405.4V495.65H552.8V352.23H497.8V262.07H525.1V325.56H552.77V235.38H471.14V378.72H525.14V469.5H497.84V405.4H471.14ZM512 768C370.84 768 256 653.16 256 512C255.912 461.319 270.911 411.758 299.086 369.63C327.261 327.503 367.337 294.714 414.21 275.44L417.45 274.1V346.69L416.28 347.37C387.502 364.173 363.614 388.203 346.98 417.079C330.347 445.955 321.546 478.676 321.45 512C321.45 617.07 406.93 702.54 512 702.54C617.07 702.54 702.55 617.06 702.55 512C702.55 445.21 666.78 382.45 609.2 348.21L608.05 347.53V274.67L611.3 276C657.781 295.5 697.458 328.31 725.341 370.302C753.223 412.294 768.065 461.594 768 512C768 653.15 653.16 768 512 768Z" fill="white"/>
</g>
<defs>
<clipPath id="clip0_2_1905">
<rect width="1024" height="1024" fill="white"/>
</clipPath>
</defs>
</svg>

<svg width="1024" height="1024" fill="none" xmlns="http://www.w3.org/2000/svg"><g clip-path="url(#a)"><path d="M512 1024c282.77 0 512-229.23 512-512S794.77 0 512 0 0 229.23 0 512s229.23 512 512 512Z" fill="#9ABEFF"/><path d="M471.14 405.4v90.25h81.66V352.23h-55v-90.16h27.3v63.49h27.67v-90.18h-81.63v143.34h54v90.78h-27.3v-64.1h-26.7ZM512 768c-141.16 0-256-114.84-256-256a255.3 255.3 0 0 1 158.21-236.56l3.24-1.34v72.59l-1.17.68A191.286 191.286 0 0 0 321.45 512c0 105.07 85.48 190.54 190.55 190.54 105.07 0 190.55-85.48 190.55-190.54 0-66.79-35.77-129.55-93.35-163.79l-1.15-.68v-72.86l3.25 1.33A255.57 255.57 0 0 1 768 512c0 141.15-114.84 256-256 256Z" fill="#fff"/></g><defs><clipPath id="a"><path fill="#fff" d="M0 0h1024v1024H0z"/></clipPath></defs></svg>
